themes/wilks/static/images/logo-alt.svg

<svg width="200px" height="143px" viewBox="0 0 200 143" version="1.1" xmlns="http://www.w3.org/2000/svg" xmlns:xlink="http://www.w3.org/1999/xlink">
    <!-- Generator: Sketch 49.3 (51167) - http://www.bohemiancoding.com/sketch -->
    <desc>Created with Sketch.</desc>
    <defs></defs>
    <g id="Page-1" stroke="none" stroke-width="1" fill="none" fill-rule="evenodd">
        <g id="tw-logo" fill-rule="nonzero" stroke="#ed143d" stroke-width="7">
            <path d="M173.885653,2.80144227 L173.885653,115.874066 L141.067706,115.874066 L141.067706,2.70140987 L116.028645,2.70140987 L116.028645,115.537958 L83.3107476,115.537958 L83.3107476,59.5998391 L59.7004028,59.5998391 L59.7004028,140.299597 L197.5,140.299597 L197.5,2.80144227 L173.885653,2.80144227 Z" id="Shape"></path>
            <path d="M83.0991944,2.5 L2.5,2.5 L2.5,25.6973817 L83.0991944,25.6973817 L83.0991944,2.5 Z" id="Shape"></path>
            <path d="M2.5,140.501007 L24.8917422,140.501007 L24.8917422,59.7004028 L2.5,59.7004028 L2.5,140.501007 Z" id="Shape"></path>
        </g>
    </g>
</svg>

<svg width="200" height="143" xmlns="http://www.w3.org/2000/svg"><path d="M173.886 2.801v113.073h-32.818V2.701h-25.04v112.837H83.312V59.6H59.7v80.7h137.8V2.8h-23.614zM83.1 2.5H2.5v23.197h80.6V2.5zM2.5 140.501h22.392v-80.8H2.5v80.8z" stroke="#ed143d" stroke-width="7" fill="none"/></svg>
